**kern	**kern	**dynam
*part1	*part1	*part1
*staff2	*staff1	*
*I"Piano	*	*
*clefF4	*clefG2	*
*k[b-]	*k[b-]	*
=1	=1	=1
*^	*	*
8ryy	2GGG 2GG	8r	f >
8EL 8G	.	8cL 8e	.
8E 8G	.	8c 8e	.
8EJ 8G	.	8cJ 8e	.
=	=	=	=
8ryy	4GG	8r	.
8F 8c	.	8d	.
8ryy	4GGG	8r	.
8F	.	8Bn 8d	p
*v	*v	*	*
=	=	=
!	!LO:TX:b:i:t=legato	!
8CCL	4.E< 4.G< 4.c<	]
16DDL	.	.
16CCJJ	.	.
[4CC	.	.
.	8e 8g 8cc	p
=	=	=
8CCL]	4.d 4.f 4.b-X	.
16DDL	.	.
16CCJJ	.	.
[4CC	.	.
.	8c 8e 8a	.
=	=	=
8CCL]	4.B- 4.d 4.g	.
16DDL	.	.
16CCJJ	.	.
[4CC	.	.
.	8A 8c 8f	.
=	=	=
*^	*	*
8GL 8B-	8CCL]	8eL	<
8F	16DDL	8B- 8d	.
.	16CCJJ	.	.
8E	[4CC	8E< 8B-< 8c<	.
8FJ	.	8FJ< 8B-< 8d<	.
=	=	=	=
2G 2B-	8CCL]	4f	[ >
.	16DL	.	.
.	16CJJ	.	.
.	.	8qe;/	]
.	[4C;	8e;L	.
!	!	!LO:TX:a:i:t=a	!
.	.	8ccJ	.
*v	*v	*	*
=	=	=
*-	*-	*-
!!!system-decoration: {(s1,s2)}
!!!RDF**kern: < = below
